!!!COM: Bach, Johann Sebastian
!!!OPR: Joh. Seb. Bachs vierstimmige Choralgesänge
!!!XEN: Four-part Chorales
!!!OTL: Chorale 119. Lass, o Herr, dein Ohr sich neigen
!!!SCT: BWV 372
!!!SCA: Thematisch-systematisches Verzeichnis der musikalischen Werke Johann Sebastian Bach: Bach-Werke-Verzeichnis (Schmieder)
!!!YOR: Bach Gesellschaft Edition xxxix
!!!ENC: Steven Rasmussen
!!!CDT: 1685/3//-1750/7/28/
!!!OCY: Deutschland
!!!YEC: Copyright (c) 1994, 2000 Center for Computer Assisted Research in the Humanities
!!!YEM: Rights to all derivative editions reserved
!!!YEN: United States of America
**kern	**kern	**kern	**kern	**silbe
*I:[BASSO]	*I:[TENORE]	*I:[ALTO]	*I:[SOPRANO]	*I:[SOPRANO]
*>[A,A,B]	*>[A,A,B]	*>[A,A,B]	*>[A,A,B]	*
*>A	*>A	*>A	*>A	*
*clefF4	*clefGv2	*clefG2	*clefG2	*
*k[b-]	*k[b-]	*k[b-]	*k[b-]	*
*d:	*d:	*d:	*d:	*
*M4/4	*M4/4	*M4/4	*M4/4	*
=1-	=1-	=1-	=1-	=1-
8GGL	4B-	4d	4g	Lass,dir
8AAJ	.	.	.	.
8BB-L	4B-	4d	4g	omein
8CJ	.	.	.	.
8DL	4A	4d	4f#	Herr,Wort
8CJ	.	.	.	.
8BB-L	4B-	4d	4g	deinzu
8GGJ	.	.	.	.
=2	=2	=2	=2	=2
4FF#	4c	8e-L	4a	OhrHer-
.	.	8dJ	.	.
4GG	8B-L	8dL	4b-	sich-zen
.	8dJ	8gJ	.	.
4C	4e-	4g	2a	nei-stei-
4D	8dL	4f#	.	.
.	8cJ	.	.	.
=3	=3	=3	=3	=3
2GG;	2B-;	2d;	2g;	-gen,-gen,
=:|!	=:|!	=:|!	=:|!	=:|!
*>B	*>B	*>B	*>B	*
4G	4d	4g	4b-	und
4D	8.dL	8gL	4a	stoss'
.	.	8f#J	.	.
.	16cJk	.	.	.
=4	=4	=4	=4	=4
4E-	8B-L	4g	4g	mich
.	8cJ	.	.	.
4BB-	4d	8gL	4b-	nicht
.	.	8fJ	.	.
4C	4c	8e-L	4a	von
.	.	8dJ	.	.
4C#	8B-L	4en	4g	dir
.	8AJ	.	.	.
=5	=5	=5	=5	=5
2D;	2A;	2d;	2f#;	hin,
8DL	4F	8AL	4fn	weil
8CJ	.	8B-J	.	.
8BB-L	4F	4c	4e-	ich
8AAJ	.	.	.	.
=6	=6	=6	=6	=6
8BB-L	4F	8B-L	4d	arm
8AAJ	.	8cJ	.	.
8GGL	4B-	4d	4g	und
8BB-J	.	.	.	.
8CL	4A	4e-	4g	e-
8AAJ	.	.	.	.
4D	16ALL	4d	4f#	-lend
.	16B-J	.	.	.
.	8cJ	.	.	.
=7	=7	=7	=7	=7
2GG;	2B-;	2d;	2g;	bin:
4G	4d	4g	4b-	hü-
8FL	4f	4a	4cc	-te
8E-J	.	.	.	.
=8	=8	=8	=8	=8
8DL	4f	4b-	4dd	mei-
8CJ	.	.	.	.
4BB-	4f	8b-L	4dd	-ne
.	.	8a-J	.	.
8BB-L	8e-L	8gL	4cc	Seel'
8AAJ	8cJ	8fJ	.	.
8BB-L	8dL	4f	4b-	und
8DJ	8B-J	.	.	.
=9	=9	=9	=9	=9
8E-L	8B-L	4g	2cc	Le-
8CJ	16AL	.	.	.
.	16GJJ	.	.	.
4F	4A	8fL	.	.
.	.	8e-J	.	.
2BB-;	2B-;	2d;	2b-;	-ben,
=10	=10	=10	=10	=10
4.BB-	4d	4f	4b-	die
.	4c	4f	4cc	ich
8AA	.	.	.	.
8BB-L	8cL	4f	4dd	hei-
8FJ	16B-L	.	.	.
.	16AJJ	.	.	.
4B-	4B-	4f	4dd	-lig
=11	=11	=11	=11	=11
4F	4A	8fL	4cc	dir
.	.	8e-J	.	.
8GL	4B-	4d	4b-	er-
8FJ	.	.	.	.
4E-	4B-	4g	2cc	-ge-
4F	4A	8fL	.	.
.	.	8e-J	.	.
=12	=12	=12	=12	=12
2BB-;	2F;	2d;	2b-;	-ben:
4GG	4G	4d	4b-	reiss'
4D	4F#	8dL	4a	mich,
.	.	8cJ	.	.
=13	=13	=13	=13	=13
4.E-	4G	4B-	4g	dei-
.	4G	8e-L	4b-	-nen
8En	.	8dJ	.	.
8FL	4A	8cL	4a	Knecht,
8F#J	.	8dJ	.	.
8GL	4B-	4d	4g	aus
8GGJ	.	.	.	.
=14	=14	=14	=14	=14
2D;	2A;	2d;	2f#;	Not,
4BBn	4G	4d	4fn	der
4C	4G	8dL	4e-	auf
.	.	16cL	.	.
.	.	16B-JJ	.	.
=15	=15	=15	=15	=15
8CL	4F#	4A	4d	dich
16BB-L	.	.	.	.
16AAJJ	.	.	.	.
8BB-L	8GL	4d	4g	nur
8GGJ	8B-J	.	.	.
8CL	4A	4e-	4g	hofft,
8AAJ	.	.	.	.
4D	8AL	4d	4f#	o
.	8cJ	.	.	.
=16	=16	=16	=16	=16
2GG;	2Bn;	2d;	2g;	Gott!
==|!	==|!	==|!	==|!	==|!
*-	*-	*-	*-	*-
!!!RWG: Key is interpreted using the Humdrum key tool.
!!!URL-pdf: https://s9.imslp.org/files/imglnks/usimg/6/6b/IMSLP24489-PMLP09471-CCARH_Bach_Chorales.pdf#page=85 Musedata edition
!!!URL-pdf: https://s9.imslp.org/files/imglnks/usimg/7/7a/IMSLP04155-Bach_-_BGA_253-438.pdf#page=66 	Bach-Gesellschaft Ausgabe, Band 39 (pp.175-276) Leipzig: Breitkopf und Härtel, 1892. Plate B.W. XXXIX.
!!!END: 1994/07/14
!!!EMD: Converted from MuseData to Humdrum Dec 19, 2000, by Andreas Kornstaedt using muse2kern.
!!!EED: Craig Stuart Sapp
!!!EEV: 2024/03/31
!!!filter-keyboard: satb2gs
!!!title: @{OTL} (@{SCT})
